X:2
T:AILNRON2- Aileen Aroon
S:Thumoth's 12 Scotch and 12 Irish Airs, c 1744
Q:1/4=120
L:1/4
M:3/4
K:D
AB{d/}c|{e/}d3/2 e/f|AB{d/}c|d3|A B/A/A/d/|\
e~e3/2f/|AB{d/}~c|d2f|(g/f/g/ a/)(g/a/)|gB~B|\
f/e/f/g/ (f/4g/4a/)|eAA|g/f/g/a/ ~g|f/e/f/g/ {g/}`f|\
(e/f/g/a/b/)g/|{f/}~e d/c/B/A/|~a2(b/4c'/4d'/)|\
b/a/g/f/e/c/|{e/}d3/2e/f|AB{d/}c|d3:|]

